X: 3940
T: Blackbird, The
R: hornpipe
M: 4/4
K: Adorian
|:AB|c3B AGAd|edeB G2 EF|G2ge dBAB|G2E2 E2 AB|
c3B AGAd|edeB G2 EF|G2ge dBAB|G2E2 E2:|
|:B2|efga b2ag|agab g2 e2|efga b2ag|f2 e2 efga|
babg a^gae|d^cde gabz|B2 AG AcBA|G2E2 E2:|

